src/icons/main-start.svg

<?xml version="1.0" encoding="UTF-8"?>
<svg width="11px" height="14px" viewBox="0 0 11 14" version="1.1" xmlns="http://www.w3.org/2000/svg" xmlns:xlink="http://www.w3.org/1999/xlink">
    <!-- Generator: Sketch 59 (86127) - https://sketch.com -->
    <title>HDL/Icon/Standard/start</title>
    <desc>Created with Sketch.</desc>
    <g id="Colors" stroke="none" stroke-width="1" fill="none" fill-rule="evenodd">
        <g id="Main-Icons" transform="translate(-120.000000, -1299.000000)" fill="#4D5969">
            <g id="Start" transform="translate(101.000000, 1281.000000)">
                <g id="HDL/Icon/Standard/start" transform="translate(19.000000, 18.000000)">
                    <path d="M11,7 C11,6.64 10.8166667,6.33 10.5508333,6.16 L10.56,6.15 L1.39333333,0.15 L1.38416667,0.16 C1.24666667,0.07 1.09083333,0 0.916666667,0 C0.4125,0 0,0.45 0,1 L0,13 C0,13.55 0.4125,14 0.916666667,14 C1.09083333,14 1.24666667,13.93 1.38416667,13.84 L1.39333333,13.85 L10.56,7.85 L10.5508333,7.84 C10.8166667,7.67 11,7.36 11,7 Z" id="Path"></path>
                </g>
            </g>
        </g>
    </g>
</svg>

<?xml version="1.0" encoding="utf-8"?>
<!-- Generator: Adobe Illustrator 20.1.0, SVG Export Plug-In . SVG Version: 6.00 Build 0)  -->
<svg version="1.1" id="Layer_1" xmlns="http://www.w3.org/2000/svg" xmlns:xlink="http://www.w3.org/1999/xlink" x="0px" y="0px"
	 viewBox="0 0 11 14" style="enable-background:new 0 0 11 14;" xml:space="preserve">
<style type="text/css">
	.st0{fill:#4D5969;}
</style>
<title>HDL/Icon/Standard/start</title>
<desc>Created with Sketch.</desc>
<g id="Colors">
	<g id="Main-Icons" transform="translate(-120.000000, -1299.000000)">
		<g id="Start" transform="translate(101.000000, 1281.000000)">
			<g id="HDL_x2F_Icon_x2F_Standard_x2F_start" transform="translate(19.000000, 18.000000)">
				<path id="Path" class="st0" d="M11,7c0-0.4-0.2-0.7-0.4-0.8l0,0l-9.2-6l0,0C1.2,0.1,1.1,0,0.9,0C0.4,0,0,0.4,0,1v12
					c0,0.6,0.4,1,0.9,1c0.2,0,0.3-0.1,0.5-0.2l0,0l9.2-6l0,0C10.8,7.7,11,7.4,11,7z"/>
			</g>
		</g>
	</g>
</g>
</svg>
